X:1
T:Etude 7, Op 176
T:Etude 7, Op 176
T:Jean-Baptiste Duvernoy c. 1802 – c. 1880 
C:J.B.Duvernoy
%%score { 1 | 2 }
L:1/8
Q:1/4=100
M:4/4
K:F
V:1 treble nm="Piano" snm="Pno."
V:2 bass 
V:1
"^Moderato"!p! (!1!ABAB cdcd) | (cBAB c!1!def) | (!4!fe^de !4!e=d^cd) | %3
!<(! (!4!d=c=Bc!<)!!>(! !5!edc_B)!>)! |!p! (!1!ABAB cdcd) | (cBAB c!1!def) | (!4!fe^de !4!e=d^cd) | %7
!<(! (!4!d=c=Bc!<)!!>(! !5!edc_B)!>)! |!p! (ABcd efga) | (Bcde fgab) |!<(! (cdef gabc') | %11
 (defg abc'd'!<)! |!f! c'2!>(! d'c' bagf) | (edcB AGFE)!>)! |!<(! (F2 GA Bcde | f4)!<)! z4 | %16
!p! (!1!efef gaga) |!<(! (gfef g!1!a=bc')!<)! |!>(! (!4!c'=b^ab) (!4!b=a^ga)!>)! | %19
!p! (!4!a=g^fg) (!5!=bag=f) |!p! (!1!efef gaga) |!<(! (gfef g!1!a=bc')!<)! | %22
!>(! (!4!c'=b^ab) (!4!b=a^ga)!>)! |!p! (!4!a=g^fg) (!5!=bag=f) | (!1!efg!1!a =bc'd'e') | %25
 (!1!fga!1!=b c'd'e'f') |!8va(!!<(! (!1!ga=bc' !1!d'e'f'g')!<)! | %27
!<(! (!1!a=bc'd' !1!e'f'g'a')!<)! |!f!!>(! (g'2 a'g' f'e'd'!1!c')!8va)! | %29
 (=bag!4!f ed!1!c!2!=B!>)! |!<(! .c) z (!1!cd e!1!fga)!<)! |!>(! (_bag!3!f edc!2!B)!>)! | %32
!p! (!1!ABAB cdcd) | (cBAB c!1!def) | (!4!fe^de !4!e=d^cd) |!<(! (!4!d=c=Bc!<)!!>(! !5!edc_B)!>)! | %36
!p! (!1!ABAB cdcd) | (cBAB c!1!def) | (!4!fe^de !4!e=d^cd) |!<(! (!4!d=c=Bc!<)!!>(! !5!edc_B)!>)! | %40
!p! (ABcd efga) | (Bcde fgab) |!<(! (cdef gabc') | (defg abc'd'!<)! |!f! c'2!>(! d'c' bagf) | %45
 (edcB AGFE)!>)! |!<(! (F2 GA Bcde | f4)!<)! z4 |] %48
V:2
!p! !5!!3![F,A,]4 C4 | [F,A,]4 C4 | !4!!2![G,B,]4 C4 | !5!!3![G,B,]4 C4 | !5!!3![F,A,]4 C4 | %5
 [F,A,]4 C4 | !4!!2![G,B,]4 C4 | !5!!3![G,B,]4 C4 | (F,4 C4 | G,4 C4) | (A,4 C4 | B,4 G,4 | C8) | %13
 (C,4 C4) | [F,A,]8- | [F,A,]4 z4 | (!2!!1![CE]4 G,4 | [CE]4 G,4) | !5!!1![G,D]4 [G,C]4 | %19
 [G,B,]4 [G,D]4 | (!2!!1![CE]4 G,4 | [CE]4 G,4) | !5!!1![G,D]4 [G,C]4 | [G,=B,]4 [G,D]4 | %24
 (!5!C,4 G,4) | (!4!D,4 G,4) | (!3!E,4 G,4) | (!2!F,4 D,4) | G,4 z4 | (!5!G,4 !1!F4 | %30
 !4!!2![CE]8-) | [CE]4 z4 |!p! !5!!3![F,A,]4 C4 | [F,A,]4 C4 | !4!!2![G,B,]4 C4 | %35
 !5!!3![G,B,]4 C4 | !5!!3![F,A,]4 C4 | [F,A,]4 C4 | !4!!2![G,B,]4 C4 | !5!!3![G,B,]4 C4 | (F,4 C4 | %41
 G,4 C4) | (A,4 C4 | B,4 G,4 | C8) | (C,4 C4) | [F,A,]8- | [F,A,]4 z4 |] %48

